optimized/24/solid/stop.svg

<svg xmlns="http://www.w3.org/2000/svg" viewBox="0 0 24 24">
  <path fill-rule="evenodd" d="M4.5 7.5C4.5 5.84315 5.84315 4.5 7.5 4.5H16.5C18.1569 4.5 19.5 5.84315 19.5 7.5V16.5C19.5 18.1569 18.1569 19.5 16.5 19.5H7.5C5.84315 19.5 4.5 18.1569 4.5 16.5V7.5Z" clip-rule="evenodd"/>
</svg>

<svg xmlns="http://www.w3.org/2000/svg" viewBox="0 0 24 24" fill="currentColor" aria-hidden="true">
  <path fill-rule="evenodd" d="M4.5 7.5a3 3 0 013-3h9a3 3 0 013 3v9a3 3 0 01-3 3h-9a3 3 0 01-3-3v-9z" clip-rule="evenodd"/>
</svg>
